src/32x32/places/folder-gruvbox-original-purple-script.svg

<?xml version="1.0" encoding="UTF-8"?>
<svg width="32" height="32" version="1" xmlns="http://www.w3.org/2000/svg">
 <rect x="2" y="11" width="28" height="18" rx="1.4" ry="1.4" opacity=".2"/>
 <path d="m2 22.6c0 0.776 0.6244 1.4 1.4 1.4h25.2c0.776 0 1.4-0.624 1.4-1.4v-15.2c0-0.7756-0.624-1.4-1.4-1.4h-12.6c-2.1 0-2.8-3-4.9-3h-7.7c-0.7756 0-1.4 0.6244-1.4 1.4" fill="#8f3f71"/>
 <rect x="2" y="9" width="28" height="18" rx="1.4" ry="1.4" opacity=".2"/>
 <rect x="4" y="8" width="24" height="11" rx="1.4" ry="1.4" fill="#E1D4B6"/>
 <rect x="2" y="10" width="28" height="18" rx="1.4" ry="1.4" fill="#d3869b"/>
 <path d="m3.4004 3c-0.7756 0-1.4004 0.6248-1.4004 1.4004v1c0-0.7756 0.6248-1.4004 1.4004-1.4004h7.6996c2.1 0 2.8 3 4.9 3h12.6c0.775 0 1.4 0.6248 1.4 1.4004v-1c0-0.7756-0.625-1.4004-1.4-1.4004h-12.6c-2.1 0-2.8-3-4.9-3z" fill="#E1D4B6" opacity=".1"/>
 <path d="m10 13v12h12v-12h-12zm3 1h1v1h0.5c0.65 0 1.2002 0.42 1.4102 1h-1.4102-0.5v1h0.5c0.83 0 1.5 0.67 1.5 1.5s-0.67 1.5-1.5 1.5h-0.5v1h-1v-1h-0.5c-0.65 0-1.2002-0.42-1.4102-1h1.4102 0.5v-1h-0.5c-0.83 0-1.5-0.67-1.5-1.5s0.67-1.5 1.5-1.5h0.5v-1zm-0.5 2c-0.28 0-0.5 0.22-0.5 0.5s0.22 0.5 0.5 0.5h0.5v-1h-0.5zm1.5 2v1h0.5c0.28 0.01 0.5-0.22 0.5-0.5s-0.22-0.5-0.5-0.5h-0.5zm3 2h4v1h-4v-1z" fill="#393534"/>
</svg>

<svg xmlns="http://www.w3.org/2000/svg" width="32" height="32" version="1">
 <rect style="opacity:0.2" width="28" height="18" x="2" y="11" rx="1.4" ry="1.4"/>
 <path style="fill:#8f3f71" d="M 2,22.6 C 2,23.376 2.6244,24 3.4,24 H 28.6 C 29.376,24 30,23.376 30,22.6 V 7.4 C 30,6.6244 29.376,6 28.6,6 H 16 C 13.9,6 13.2,3 11.1,3 H 3.4 C 2.6244,3 2,3.6244 2,4.4"/>
 <rect style="opacity:0.2" width="28" height="18" x="2" y="9" rx="1.4" ry="1.4"/>
 <rect style="fill:#E1D4B6" width="24" height="11" x="4" y="8" rx="1.4" ry="1.4"/>
 <rect style="fill:#d3869b" width="28" height="18" x="2" y="10" rx="1.4" ry="1.4"/>
 <path style="opacity:0.1;fill:#E1D4B6" d="M 3.4004,3 C 2.6248,3 2,3.6248 2,4.4004 V 5.4004 C 2,4.6248 2.6248,4 3.4004,4 H 11.1 C 13.2,4 13.9,7 16,7 H 28.6 C 29.375,7 30,7.6248 30,8.4004 V 7.4004 C 30,6.6248 29.375,6 28.6,6 H 16 C 13.9,6 13.2,3 11.1,3 Z"/>
 <path style="fill:#393534" d="M 10 13 L 10 25 L 22 25 L 22 13 L 10 13 z M 13 14 L 14 14 L 14 15 L 14.5 15 C 15.15 15 15.700156 15.42 15.910156 16 L 14.5 16 L 14 16 L 14 17 L 14.5 17 C 15.33 17 16 17.67 16 18.5 C 16 19.33 15.33 20 14.5 20 L 14 20 L 14 21 L 13 21 L 13 20 L 12.5 20 C 11.85 20 11.299844 19.58 11.089844 19 L 12.5 19 L 13 19 L 13 18 L 12.5 18 C 11.67 18 11 17.33 11 16.5 C 11 15.67 11.67 15 12.5 15 L 13 15 L 13 14 z M 12.5 16 C 12.22 16 12 16.22 12 16.5 C 12 16.78 12.22 17 12.5 17 L 13 17 L 13 16 L 12.5 16 z M 14 18 L 14 19 L 14.5 19 C 14.78 19.01 15 18.78 15 18.5 C 15 18.22 14.78 18 14.5 18 L 14 18 z M 17 20 L 21 20 L 21 21 L 17 21 L 17 20 z"/>
</svg>
